X:953
T:Wild Mountain Thyme #1, The
C:Joe Buchanan's Scottish Tome - Page 557.2
I:557 2
Z:Carl Allison
R:Waltz
L:1/8
M:3/4
K:A
AF | "A"(E2 F) | "D"(A2 B) | "D"A3 | "D7"Ace | "D"f3 | (f2 e) | "A"c e2- | "A7"e(Ae) |
"D"f3 | "C#m"e2 c | B "F#m"A2- | ABc | "Bm"(d2 c) | (B2 A) | "D"F A2 | A2 F |
"A"E3 | "D"F A2 | "A"A3- | "A7"Ace | "D"f3 | (f2 e) | "A"c e2- | "A7"ece |
"D"f3 | "C#m"(e2 c) | "F#m"(B A2-) | ABc | "Bm"(d2 c) | (B2 A) | "D"F A2 | A2 F |
"A"E3 | "D"(F A2) | "A"A3 | AGF | "A"E3 | "D"(F A2) | A3- | A2 |]

